components/ui-node-icon/src/source/source.medium.svg

<svg width="24" height="24" viewBox="0 0 24 24" fill="none" xmlns="http://www.w3.org/2000/svg">
  <path fill-rule="evenodd" clip-rule="evenodd" d="M5 2C3.34315 2 2 3.34315 2 5V19C2 20.6569 3.34315 22 5 22H10.7084C9.04751 20.5341 8 18.3894 8 16C8 11.5817 11.5817 8 16 8C16.6906 8 17.3608 8.08751 18 8.25203V5C18 3.34315 16.6569 2 15 2H5Z" fill="var(--tbl--colors--icons--source--secondary)"/>
  <path fill-rule="evenodd" clip-rule="evenodd" d="M16 24C20.4183 24 24 20.4183 24 16C24 11.5817 20.4183 8 16 8C11.5817 8 8 11.5817 8 16C8 20.4183 11.5817 24 16 24ZM15 15.4142V19C15 19.5523 15.4477 20 16 20C16.5523 20 17 19.5523 17 19V15.4142L17.2929 15.7071C17.6834 16.0976 18.3166 16.0976 18.7071 15.7071C19.0976 15.3166 19.0976 14.6834 18.7071 14.2929L16.7071 12.2929C16.5196 12.1054 16.2652 12 16 12C15.7348 12 15.4804 12.1054 15.2929 12.2929L13.2929 14.2929C12.9024 14.6834 12.9024 15.3166 13.2929 15.7071C13.6834 16.0976 14.3166 16.0976 14.7071 15.7071L15 15.4142Z" fill="var(--tbl--colors--icons--source--primary)"/>
</svg>

<svg xmlns="http://www.w3.org/2000/svg" width="24" height="24" fill="none" viewBox="0 0 24 24">
  <path fill="var(--tbl--colors--icons--source--secondary)" fill-rule="evenodd" d="M5 2a3 3 0 0 0-3 3v14a3 3 0 0 0 3 3h5.708A8 8 0 0 1 18 8.252V5a3 3 0 0 0-3-3H5Z" clip-rule="evenodd"/>
  <path fill="var(--tbl--colors--icons--source--primary)" fill-rule="evenodd" d="M16 24a8 8 0 1 0 0-16 8 8 0 0 0 0 16Zm-1-8.586V19a1 1 0 1 0 2 0v-3.586l.293.293a1 1 0 0 0 1.414-1.414l-2-2a1 1 0 0 0-1.414 0l-2 2a1 1 0 0 0 1.414 1.414l.293-.293Z" clip-rule="evenodd"/>
</svg>
